X:1847
L:1/8
M:4/4
K:C
 BEA |[M:2/2][K:G]SOSOO .!fermata!PMTuCO MD2"^Segno" | G2 (Bd) gdBd | cBAB cedc | BGAF GBdg | 
 ecAF GFED | G2 (Bd) gdBd | cBAB cedc | BGAF GBdg | ecAF G2"^Fine" || b2 ag b2 ag | egdg egdg | 
 b2 ag b2 ag | egfa gfga | bgag bgag | egdg egdg | bgaf gfed | egfa ged"^Dal Segno al Fine" B |]

